X:1
T:Six Dukes Went A-Fishing
M:3/4
L:1/4
K:C
 G| c B A
M:4/4
| G D2 B|
M:3/4
c/2-B/2 A e|
M:4/4
 d2 z| d/2d/2|
M:3/4
 e d c/2B/2| d D/2 z/2 G| d3/2 A/2 c-| c3.99999962500005/11.9999985000002(2B3.99999962500005/11.9999985000002B3.99999962500005/11.9999985000002B3.99999962500005/11.9999985000002 G2|\
||
